!!!!SEGMENT: pl-sa--l-1643--018_anonim--salve-regina.krn
!!!cenid: 16xx:1373
!!!COM: Anonim
!!!COM-rismID: pe30004985
!!!CDT:
!!!CNT:
!!!OTL: Salve Regina
!!!PDT:
!!!AGN: Sacred
!!!SMS-siglum: PL-SA
!!!SMS-shelfmark: L 1643
!!!SMS-shelfwork: 018 W
!!!SMS-variant:
!!!SMS-altvar:
!!!NIFC-rismSourceID: 1001064698
!!!NIFC-rismChildID: 1001064698
!!!NIFC-islandoraID:
!!!URL-pdf-islandora:
!!!URL-scan:
!!!ONB-nifc: UWAGA: 8 ksiąg. Primi chori: 1mus Cantus (x), C 2dus (40-41), C 3tius (x), Bassus (x); Secondi chori: Primus Cantus (86-87), C 2dus (89-90), Altus (87-88), Bassus (89). UWAGA: metrum 2/2. Nie dodawać pustych linii, chyba że w rękopisie pojawiają się dodatkowe oznaczenia dotyczące pełnej obsady (a 4, a 8 itp.)
!!!AIN: 5 empty
!!!key:
**kern	**text	**kern	**text	**kern	**text	**kern	**text	**kern	**text
*part5	*part5	*part4	*part4	*part3	*part3	*part2	*part2	*part1	*part1
*staff5	*staff5	*staff4	*staff4	*staff3	*staff3	*staff2	*staff2	*staff1	*staff1
*group1	*	*group1	*	*group1	*	*group1	*	*	*
*Iempty	*	*Iempty	*	*Iempty	*	*Iempty	*	*Iempty	*
*I"Baſsus 2di Chori	*	*I"Altus secundi Chori.	*	*I"Cantus 2dus Secundi Chori.	*	*I"Primus Cantus 2di Chori	*	*I"Cantus 2dus Primi Chori.	*
*I'II Coro B	*	*I'II Coro A	*	*I'II Coro S 2	*	*I'II Coro S 1	*	*I'I Coro S 2	*
*clefC3	*	*clefC2	*	*clefC1	*	*clefG2	*	*clefC1	*
*k[b-]	*	*k[b-]	*	*k[b-]	*	*k[b-]	*	*k[b-]	*
*g:	*	*g:	*	*g:	*	*g:	*	*g:	*
*M2/1	*	*M2/1	*	*M2/1	*	*M2/1	*	*M2/1	*
*met(C|)	*	*met(C|)	*	*met(C|)	*	*met(C|)	*	*met(C|)	*
=1-	=1-	=1-	=1-	=1-	=1-	=1-	=1-	=1-	=1-
!	!	!LO:TX:t=P:problem=przy kluczu B-	!	!	!	!	!	!	!
*	*	*	*	*	*	*lig	*	*	*
1B-	Vi-	1f	Vi-	1b-	Vi-	1dd	Vi-	1b-	Vi-
!	!	!	!	!	!	!	!	!LO:TX:a:i:t=Salve Regina:color=gray	!
2F/	-ta	2c/	-ta	2a\	-ta	1cc	.	2cc\	-ta
2c/	dul-	2e/	dul-	2g/	dul-	.	.	2cc\	dul-
=2-	=2-	=2-	=2-	=2-	=2-	=2-	=2-	=2-	=2-
4g\	-ce-	1g	-ce-	1dd	-ce-	1dd	.	1b-	-ce-
4f\	.	.	.	.	.	.	.	.	.
4e\	.	.	.	.	.	.	.	.	.
4d\	.	.	.	.	.	.	.	.	.
*	*	*	*	*	*	*Xlig	*	*	*
1c	-do	1e	-do	1cc	-do	1g	-ta	2cc\	-do
.	.	.	.	.	.	.	.	2.b-\	et
=3-	=3-	=3-	=3-	=3-	=3-	=3-	=3-	=3-	=3-
0r	.	0r	.	0r	.	0r	.	.	.
.	.	.	.	.	.	.	.	4cc\	spes
.	.	.	.	.	.	.	.	2dd\	.
.	.	.	.	.	.	.	.	4g/	no-
.	.	.	.	.	.	.	.	4a\	.
.	.	.	.	.	.	.	.	2.b-\	-ſtra
=4-	=4-	=4-	=4-	=4-	=4-	=4-	=4-	=4-	=4-
1r	.	1r	.	1r	.	1r	.	.	.
.	.	.	.	.	.	.	.	8a\L	.
.	.	.	.	.	.	.	.	8g\J	.
.	.	.	.	.	.	.	.	2a\	sal-
2r	.	2r	.	2r	.	2r	.	2b-\	-ue
1B-/	et	1f\	et	1b-\	et	1dd\	et	2r	.
=5-	=5-	=5-	=5-	=5-	=5-	=5-	=5-	=5-	=5-
.	.	.	.	.	.	.	.	0r	.
2B-/	spes	2f\	spes	2b-\	spes	2dd\	spes	.	.
2G/	no-	2g\	no-	2b-\	no-	2b-/	no-	.	.
2B-/	-stra	2f\	-stra	2.b-\	-stra	2b-/	-stra	.	.
=6-	=6-	=6-	=6-	=6-	=6-	=6-	=6-	=6-	=6-
*	*	*custos:f	*	*	*	*	*	*	*
!	!	!LO:SIC:v:l:s=sal-	!	!	!	!	!	!	!
1F	sal-	1f	val-	.	.	1cc	sal-	1r	.
.	.	.	.	8a\L	.	.	.	.	.
.	.	.	.	8g\J	.	.	.	.	.
.	.	.	.	2a\	sal-	.	.	.	.
!	!	!LO:LB:g=original	!	!	!	!	!	!	!
!	!	!LO:SIC:v:l:s==ve	!	!	!	!	!	!	!
2B-/	-ue	2f\	-le	2b-\	-ue,	2dd\	-ue	2r	.
2r	.	2r	.	2r	.	2r	.	1dd\	et
=7-	=7-	=7-	=7-	=7-	=7-	=7-	=7-	=7-	=7-
0r	.	0r	.	0r	.	0r	.	.	.
.	.	.	.	.	.	.	.	2dd\	spes
.	.	.	.	.	.	.	.	2.cc\	no-
.	.	.	.	.	.	.	.	4b-\	.
=8-	=8-	=8-	=8-	=8-	=8-	=8-	=8-	=8-	=8-
1r	.	1r	.	1r	.	1r	.	4a\	-ſtra
.	.	.	.	.	.	.	.	4g/	.
.	.	.	.	.	.	.	.	2a\	sal-
2r	.	2r	.	2r	.	2r	.	2b-\	-ue
*	*	*	*	*	*	*	*	*custos:b-	*
1g\	et	1d/	et	1b-\	et	1dd\	et-	1b-\	et
!	!	!	!	!	!	!	!	!LO:LB:g=original	!
=9-	=9-	=9-	=9-	=9-	=9-	=9-	=9-	=9-	=9-
*	*	*	*	*custos:g	*	*	*	*	*
2g\	spes	2d/	spes	2g/	spes	2dd\	-spes	2b-\	spes
!	!	!	!	!LO:LB:g=original	!	!	!	!	!
2c/	n(os-	2g\	no-	2g/	no-	2cc\	no-	2cc\	no-
2g\	-t)ra	2d/	-stra	2b-\	-stra	2b-/	-stra	2dd\	-ſtra
=10-	=10-	=10-	=10-	=10-	=10-	=10-	=10-	=10-	=10-
1d	ſal-	1d	Sal-	1a	sal-	1a	sal-	1dd	ſal-
!	!	!	!	!	!	!LO:TX:b:t=P:problem=# below	!	!	!
!	!	!LO:SIC:v:l:s==ve	!	!LO:N:acc=#	!	!LO:N:acc=#	!	!	!
1gl;;	-ue	1dl;;	-le.	1bnl;;	-ue	1bnl;;	-ue	1ddl;;	-ue
!LO:LB:g=original	!	!	!	!	!	!LO:LB:g=original	!	!	!
=11||	=11||	=11||	=11||	=11||	=11||	=11||	=11||	=11||	=11||
*M2/1	*	*M2/1	*	*M2/1	*	*M2/1	*	*	*
*met(C|)	*	*met(C|)	*	*met(C|)	*	*met(C|)	*	*	*
1B-	Ad	1d	Ad	1b-	Ad	1dd	Ad	1b-	Ad
2F/	te	2f\	te	2a\	te	2cc\	te	2cc\	te
2r	.	2r	.	2r	.	2r	.	4a\	sus-
.	.	.	.	.	.	.	.	4a\	-pi-
=12-	=12-	=12-	=12-	=12-	=12-	=12-	=12-	=12-	=12-
1r	.	1r	.	1r	.	1r	.	1a	-ra-
2r	.	2r	.	2r	.	2r	.	2a\	-mus
2F/	ad	2f\	ad	2a\	ad	2cc\	ad	2r	.
=13-	=13-	=13-	=13-	=13-	=13-	=13-	=13-	=13-	=13-
2B-/	te	2f\	te	2b-\	te	2dd\	te	2r	.
2r	.	2r	.	2r	.	2r	.	4dd\	sus-
.	.	.	.	.	.	.	.	4dd\	-pi-
1r	.	1r	.	1r	.	1r	.	2.b-\	-ra-
.	.	.	.	.	.	.	.	4cc\	-mus
=14-	=14-	=14-	=14-	=14-	=14-	=14-	=14-	=14-	=14-
2r	.	2r	.	2r	.	2r	.	2dd\	.
*	*	*custos:g	*	*	*	*	*	*	*
2G/	ad	2g\	ad	2b-\	ad	2dd\	ad	2r	.
!	!	!LO:LB:g=original	!	!	!	!	!	!	!
2c/	te	2g\	te	2cc\	te	2ee\	te	2r	.
2r	.	2r	.	2r	.	2r	.	4dd\	sus-
.	.	.	.	.	.	.	.	4dd\	-pi-
=15-	=15-	=15-	=15-	=15-	=15-	=15-	=15-	=15-	=15-
!LO:TX:t=P:problem=brak pauzy 0r	!	!	!	!	!	!	!	!LO:TX:b:t=P:problem=# below	!
0ryy	.	1r	.	0r	.	1r	.	1cc#X	-ra-
*	*	*	*	*	*	*	*	*custos:b-	*
.	.	0r	.	.	.	0r	.	2dd\	-mus
!	!	!	!	!	!	!	!	!LO:LB:g=original	!
.	.	.	.	.	.	.	.	2b-\	ge-
=16-	=16-	=16-	=16-	=16-	=16-	=16-	=16-	=16-	=16-
1r	.	.	.	1r	.	.	.	1ccny	-men-
2r	.	2r	.	2r	.	2r	.	2b-\	-tes
*	*	*	*	*custos:cc	*	*	*	*	*
2B-/	et	2d/	et	2b-\	et	2dd\	et	2r	.
!	!	!	!	!LO:LB:g=original	!	!	!	!	!
=17-	=17-	=17-	=17-	=17-	=17-	=17-	=17-	=17-	=17-
1A	flen-	2.e/	flen-	1cc	flen-	1cc	flen-	1r	.
.	.	4f\	.	.	.	.	.	.	.
2G/	-tes	2g\	-tes	2dd\	-tes	2b-/	-tes	2r	.
2r	.	2r	.	2r	.	2r	.	2a\	ge-
=18-	=18-	=18-	=18-	=18-	=18-	=18-	=18-	=18-	=18-
1r	.	1r	.	1r	.	1r	.	1a	-men-
2r	.	2r	.	2r	.	2r	.	2a\	-tes
!	!	!	!	!LO:N:acc=#	!	!	!	!	!
!	!	!	!	!LO:TX:b:t=P:problem=# below	!	!	!	!	!
2G/	et	2g\	et	2bn\	et	2dd\	et	2r	.
=19-	=19-	=19-	=19-	=19-	=19-	=19-	=19-	=19-	=19-
1c	flen-	1g	flen-	1cc	flen-	1ee-X	flen-	1r	.
!	!	!	!	!LO:N:acc=#	!	!	!	!	!
!	!	!	!	!LO:TX:b:t=P:problem=# below	!	!	!	!	!
2G/	-tes	2g\	-tes	2bn\	-tes	2dd\	-tes	2r	.
2r	.	2r	.	2r	.	2r	.	2dd\	ge-
=20-	=20-	=20-	=20-	=20-	=20-	=20-	=20-	=20-	=20-
1r	.	1r	.	1r	.	1r	.	2.b-\	-men-
.	.	.	.	.	.	.	.	4cc\	.
*	*	*	*	*	*	*custos:ff	*	*	*
2r	.	2r	.	2r	.	2r	.	2dd\	-tes
*custos:c	*	*	*	*	*	*	*	*	*
!	!	!	!	!	!	!LO:LB:g=original	!	!	!
2B-/	et	2b-\	et	2dd\	et	2ff\	et	2r	.
!LO:LB:g=original	!	!	!	!	!	!	!	!	!
=21-	=21-	=21-	=21-	=21-	=21-	=21-	=21-	=21-	=21-
1c	flen-	1g	flen-	1cc	flen-	1ee-X	flen-	1r	.
2G/	-tes	2g\	.	2b-\	-tes,	2dd\	-tes	2r	.
1f\	in	1c/	-tes	1a\	in	1cc\	in	1a\	in
=22-	=22-	=22-	=22-	=22-	=22-	=22-	=22-	=22-	=22-
2c/	hac	2g\	in	2g/	hac	2cc\	hac	2cc\	hac
!	!	!LO:SIC:v:l:s=la-	!	!	!	!	!	!	!
2g\	.	2g\	ha-	2b-\	la-	2dd\	la-	2b-\	la-
2c/	la-	2g\	-crÿ-	2g/	-chri-	2ee-X\	-chri-	2cc\	-crÿ-
=23-	=23-	=23-	=23-	=23-	=23-	=23-	=23-	=23-	=23-
2g\	-chri-	2g\	-ma-	2b-\	-ma-	2dd\	-ma-	2b-\	-ma-
2c/	-ma-	2g\	-rum	2g/	-rum	2cc\	-rum	2cc\	-rum
2g\	-rum	1d	val-	2b-\	val-	1dd	val-	(2b-\	ual-
2d\	val-	.	.	2dd\	.	.	.	2a\)	.
=24-	=24-	=24-	=24-	=24-	=24-	=24-	=24-	=24-	=24-
!	!	!	!	!LO:N:acc=#	!	!	!	!LO:SIC:v:s=0bnl;;	!
0gl;;	-le.	0dl;;	-le.	0bnl;;	-le.	0ddl;;	-le.	0b-l;;	-le?
!	!	!LO:PB:g=original	!	!LO:PB:g=original	!	!	!	!	!
=25||	=25||	=25||	=25||	=25||	=25||	=25||	=25||	=25||	=25||
!	!	!	!	!LO:SIC:v:s=0bn	!	!	!	!LO:N:acc=#	!
0g	Et	0d	Et	0b-	Et	0dd	Et	0bn	Et
=26-	=26-	=26-	=26-	=26-	=26-	=26-	=26-	=26-	=26-
0c	Ie-	0g	Ie-	0a	ie-	0cc	Ie-	0cc	ie-
=27-	=27-	=27-	=27-	=27-	=27-	=27-	=27-	=27-	=27-
!	!	!	!	!LO:SIC:v:s=0bn	!	!	!	!LO:N:acc=#	!
0g	-sum	0d	-sum	0b-	-sum	0dd	-sum	0bn	-sum
=28-	=28-	=28-	=28-	=28-	=28-	=28-	=28-	=28-	=28-
*	*	*	*	*	*	*custos:b-	*	*	*
00r	.	00r	.	00r	.	00r	.	2r	.
.	.	.	.	.	.	.	.	1b-y	be-
.	.	.	.	.	.	.	.	2a\	-ne-
=29-	=29-	=29-	=29-	=29-	=29-	=29-	=29-	=29-	=29-
.	.	.	.	.	.	.	.	2g/	-di-
.	.	.	.	.	.	.	.	2f/	-ctum
.	.	.	.	.	.	.	.	2g/	fru-
.	.	.	.	.	.	.	.	2b-\	-ctum
!	!	!	!	!	!	!LO:PB:g=original	!	!	!
=30-	=30-	=30-	=30-	=30-	=30-	=30-	=30-	=30-	=30-
!LO:TX:t=P:problem=zbędna pauza 00r w II Coro S 1	!	!LO:TX:t=P:problem=zbędna pauza 00r w II Coro S 1	!	!LO:TX:t=P:problem=zbędna pauza 00r w II Coro S 1	!	!LO:TX:t=P:problem=zbędna pauza 00r	!	!LO:TX:t=P:problem=zbędna pauza 00r w II Coro S 1	!
0ryy	.	0ryy	.	0ryy	.	00r	.	00ryy	.
=31-	=31-	=31-	=31-	=31-	=31-	=31-	=31-	=31-	=31-
0ryy	.	0ryy	.	0ryy	.	.	.	.	.
=32-	=32-	=32-	=32-	=32-	=32-	=32-	=32-	=32-	=32-
0r	.	0r	.	0r	.	0r	.	2a\	uen-
.	.	.	.	.	.	.	.	2g/	-tris
.	.	.	.	.	.	.	.	1a	tu-
=33-	=33-	=33-	=33-	=33-	=33-	=33-	=33-	=33-	=33-
2r	.	2r	.	2r	.	2r	.	2b-\	-i,
*custos:c	*	*	*	*	*	*	*	*	*
2G/	no-	2g\	no-	2dd\	no-	2b-/	no-	2r	.
!LO:LB:g=original	!	!	!	!	!	!	!	!	!
2c/	-bis	2g\	-bis	2cc\	-bis	2cc\	-bis	2r	.
2r	.	2r	.	2r	.	2r	.	2a\	post
=34-	=34-	=34-	=34-	=34-	=34-	=34-	=34-	=34-	=34-
00r	.	00r	.	00r	.	00r	.	2b-\	hoc
.	.	.	.	.	.	.	.	2b-\	e-
.	.	.	.	.	.	.	.	2.b-\	-xi-
.	.	.	.	.	.	.	.	4b-\	-li-
=35-	=35-	=35-	=35-	=35-	=35-	=35-	=35-	=35-	=35-
*	*	*	*	*	*	*	*	*custos:b-	*
.	.	.	.	.	.	.	.	2b-\	-um
!	!	!	!	!	!	!	!	!LO:LB:g=original	!
.	.	.	.	.	.	.	.	2.b-\	o-
.	.	.	.	.	.	.	.	8a\L	.
.	.	.	.	.	.	.	.	8g\J	.
.	.	.	.	.	.	.	.	2a\	-ſten-
=36-	=36-	=36-	=36-	=36-	=36-	=36-	=36-	=36-	=36-
2r	.	2r	.	2r	.	2r	.	2b-\	-de
2F/	no-	2a\	no-	2cc\	no-	2cc\	no-	2r	.
2B-/	-bis	2f\	-bis	2b-\	-bis	2dd\	-bis	2r	.
2r	.	2r	.	2r	.	2r	.	2b-\	poſt
=37-	=37-	=37-	=37-	=37-	=37-	=37-	=37-	=37-	=37-
00r	.	0r	.	00r	.	00r	.	2cc\	hoc
.	.	.	.	.	.	.	.	2cc\	e-
.	.	.	.	.	.	.	.	2.dd\	-xi-
.	.	.	.	.	.	.	.	4dd\	-li-
=38-	=38-	=38-	=38-	=38-	=38-	=38-	=38-	=38-	=38-
!	!	!LO:TX:t=P:problem=brak pauzy 0r	!	!	!	!	!	!	!
.	.	0ryy	.	.	.	.	.	2b-\	-um
.	.	.	.	.	.	.	.	2.b-\	o-
.	.	.	.	.	.	.	.	8a\L	.
.	.	.	.	.	.	.	.	8g\J	.
.	.	.	.	.	.	.	.	2a\	-ſten-
=39-	=39-	=39-	=39-	=39-	=39-	=39-	=39-	=39-	=39-
2r	.	2r	.	2r	.	2r	.	2b-\	-de
2f\	o-	2f\	o-	2a\	o-	2cc\	o-	2r	.
4B-/	-sten-	1f	-sten-	1b-	-sten-	1dd	-sten-	1r	.
4c/	.	.	.	.	.	.	.	.	.
4d\	.	.	.	.	.	.	.	.	.
4e\	.	.	.	.	.	.	.	.	.
=40-	=40-	=40-	=40-	=40-	=40-	=40-	=40-	=40-	=40-
2f\	-de	2f\	-de	2a\	-de	2cc\	-de	2r	.
!	!	!	!	!	!	!	!	!LO:TX:b:t=P:problem=# below	!
!	!	!	!	!	!	!	!	!LO:N:acc=#	!
2r	.	2r	.	2r	.	2r	.	2bn\	o
1r	.	1r	.	1r	.	1r	.	1cc	-ſten-
=41-	=41-	=41-	=41-	=41-	=41-	=41-	=41-	=41-	=41-
!	!	!	!	!	!	!	!	!LO:TX:b:t=P:problem=# below	!
!	!	!	!	!	!	!	!	!LO:N:acc=#	!
2r	.	2r	.	2r	.	2r	.	2bn\	-de
2d\	o-	2f\	o-	2a\	o-	2dd\	o-	2r	.
!	!	!	!	!	!	!LO:TX:b:t=P:problem=# below	!	!	!
1A	-sten-	1e	-sten-	1a	-sten-	1cc#X	-sten-	1r	.
=42-	=42-	=42-	=42-	=42-	=42-	=42-	=42-	=42-	=42-
*	*	*custos:g	*	*custos:b-	*	*	*	*	*
2d\	-de	2d/	-de	2a\	-de	2dd\	-de	2r	.
!	!	!LO:LB:g=original	!	!LO:LB:g=original	!	!	!	!	!
2r	.	2r	.	2r	.	2r	.	2dd\	o-
1r	.	1r	.	1r	.	1r	.	2.b-/	-ſten-
*	*	*	*	*	*	*	*	*custos:dd	*
.	.	.	.	.	.	.	.	4cc\	-de
!	!	!	!	!	!	!	!	!LO:LB:g=original	!
=43-	=43-	=43-	=43-	=43-	=43-	=43-	=43-	=43-	=43-
2r	.	2r	.	2r	.	2r	.	2dd\	de
2G/	o-	2g\	o-	2b-\	o-	2dd\	o-	2r	.
1c	-sten-	1g	-sten-	1cc	-sten-	1ee-X	-sten-	1r	.
=44-	=44-	=44-	=44-	=44-	=44-	=44-	=44-	=44-	=44-
2G/	-de	2g\	-de	2b-\	-de	2dd\	-de	2r	.
*	*	*	*	*	*	*custos:dd	*	*	*
2r	.	2r	.	2r	.	2r	.	2dd\	o-
!	!	!	!	!	!	!LO:LB:g=original	!	!	!
1r	.	1r	.	1r	.	1r	.	2.b-\	-ſten-
.	.	.	.	.	.	.	.	4cc\	.
=45-	=45-	=45-	=45-	=45-	=45-	=45-	=45-	=45-	=45-
*custos:g	*	*	*	*	*	*	*	*	*
2r	.	2r	.	2r	.	2r	.	2dd\	-de
!LO:LB:g=original	!	!	!	!	!	!	!	!	!
2g\	o-	2d/	o-	2b-\	o-	2dd\	o-	2dd\	o-
1d	-sten-	1d	-sten-	1a	-sten-	1dd	-sten-	1dd	-ſten-
=46-	=46-	=46-	=46-	=46-	=46-	=46-	=46-	=46-	=46-
!	!	!	!	!LO:N:acc=#	!	!	!	!LO:N:acc=#	!
0gl;;	-de	0dl;;	-de	0bnl;;	-de	0ddl;;	-de	0bnl;;	-de
=47||	=47||	=47||	=47||	=47||	=47||	=47||	=47||	=47||	=47||
1d	O	1f	O	1a	O	1dd	O	00r	.
2e\	.	2g\	.	2g/	.	2cc\	.	.	.
2f\	.	2a\	.	2cc\	.	2a/	.	.	.
=48-	=48-	=48-	=48-	=48-	=48-	=48-	=48-	=48-	=48-
1g	.	1g	.	1b-	.	1.b-	pi-	.	.
1e-X	pi-	1g	pi-	1g	pi-	.	.	.	.
.	.	.	.	.	.	2cc\	.	.	.
=49-	=49-	=49-	=49-	=49-	=49-	=49-	=49-	=49-	=49-
!	!	!LO:TX:b:t=P:problem=# below	!	!	!	!	!	!	!
2d\	-a	2f#X\	-a	2a\	-a	2dd\	-a	2r	.
2r	.	2r	.	2r	.	2r	.	2dd\	O
00r	.	00r	.	00r	.	00r	.	2cc\	.
.	.	.	.	.	.	.	.	2a\	.
=50-	=50-	=50-	=50-	=50-	=50-	=50-	=50-	=50-	=50-
.	.	.	.	.	.	.	.	1.b-	.
.	.	.	.	.	.	.	.	2a\	.
=51-	=51-	=51-	=51-	=51-	=51-	=51-	=51-	=51-	=51-
.	.	.	.	.	.	.	.	2.b-\	pi-
.	.	.	.	.	.	.	.	4cc\	.
0r	.	0r	.	0r	.	0r	.	2dd\	-a
.	.	.	.	.	.	.	.	2g/	O
=52-	=52-	=52-	=52-	=52-	=52-	=52-	=52-	=52-	=52-
.	.	.	.	.	.	.	.	0a	pi-
*	*	*	*	*custos:b-	*	*	*	*	*
1r	.	1r	.	1r	.	1r	.	.	.
!	!	!	!	!LO:LB:g=original	!	!	!	!LO:PB:g=original	!
=53-	=53-	=53-	=53-	=53-	=53-	=53-	=53-	=53-	=53-
2r	.	2r	.	2r	.	2r	.	2a\	-a
*	*	*custos:g	*	*	*	*	*	*	*
2B-/	ô	2fny\	O	2b-\	O	2dd\	ô	2r	.
!	!	!LO:LB:g=original	!	!	!	!	!	!	!
1e-X	pi-	1g	pi-	2.g/	pi-	2.b-/	pi-	1r	.
.	.	.	.	4a\	.	4cc\	.	.	.
=54-	=54-	=54-	=54-	=54-	=54-	=54-	=54-	=54-	=54-
2B-/	-a	2f\	-a	2b-\	-a,	2dd\	-a,	2r	.
!	!	!	!	!LO:SIC:v:s=2bn	!	!	!	!LO:N:acc=#	!
2g\	O	2g\	O	2b-\	ô	2dd\	ô	2bn\	O
*custos:g	*	*	*	*	*	*	*	*	*
0c	pi-	0g	pi-	1.g	pi-	0cc	pi-	0cc	pi-
=55-	=55-	=55-	=55-	=55-	=55-	=55-	=55-	=55-	=55-
.	.	.	.	2g/	-a	.	.	.	.
!LO:LB:g=original	!	!	!	!LO:N:acc=#	!	!	!	!LO:N:acc=#	!
1gl;;	-a	1dl;;	-a.	1bnl;;	.	1ddl;;	-a.	1bnl;;	-a?
==	==	==	==	==	==	==	==	==	==
*-	*-	*-	*-	*-	*-	*-	*-	*-	*-
!!!system-decoration: [(s1)][(g1)]
!!!RDF**kern: l = terminal long
!!!ENC: Anastazja Marusiak
!!!END: 2021-10-04
!!!ENC: Andrzej Kubiczek
!!!END: 2021-10-11
!!!YEC: Copyright 2022 Narodowy Instytut Fryderyka Chopina (https://polishscores.org)
!!!YEM: License CC-BY-4.0 (https://creativecommons.org/licenses/by/4.0)
